X:30
M:6/8
L:1/8
K:Bb
(A/B/4c/4)|:B>AG F>ED|EFG FED|cde dcB|AcB AGF|BAG FED|
EFG FED|FAe dec|1 (B3 B2) (A/B/4c/4):|2 (B3 B2)c|:dcB fed|cBA edc|

